!!!COM:	Josquin des Prez
!!!CDT:	~1450-1521/08/27
!!!OPR:	Missa Malheur me bat
!!!ONM:	5
!!!OTL:	Agnus Dei
!!!AGN:	Mass; Agnus Dei
!!!SCT:	NJE 9.1
!!!SCA:	New Josquin Edition 9.1
!!!voices: 4
!!!voices-OPR: 4(-6)
**kern	**kern	**kern	**kern	**kern	**kern
*staff6	*staff5	*staff4	*staff3	*staff2	*staff1
*Ivox	*Ivox	*Ivox	*Ivox	*Ivox	*Ivox
*I"Bassus2	*I"Bassus1	*I"Tenor	*I"Altus2	*I"Altus1	*I"Superius
*	*I"Bassus	*	*	*I"Altus	*
*I'B2	*I'B1	*I'T	*I'A2	*I'A1	*I'S
*>[A,B,C]	*>[A,B,C]	*>[A,B,C]	*>[A,B,C]	*>[A,B,C]	*>[A,B,C]
*>Agnus1[A]	*>Agnus1[A]	*>Agnus1[A]	*>Agnus1[A]	*>Agnus1[A]	*>Agnus1[A]
*>Agnus2[B]	*>Agnus2[B]	*>Agnus2[B]	*>Agnus2[B]	*>Agnus2[B]	*>Agnus2[B]
*>Agnus3[C]	*>Agnus3[C]	*>Agnus3[C]	*>Agnus3[C]	*>Agnus3[C]	*>Agnus3[C]
*>A	*>A	*>A	*>A	*>A	*>A
*clefF4	*clefF4	*clefGv2	*clefGv2	*clefGv2	*clefG2
*k[]	*k[]	*k[]	*k[]	*k[]	*k[]
*	*	*rscale:1/2	*	*	*
*M2/1	*M2/1	*M2/0	*M2/1	*M2/1	*M2/1
*met()	*met(C|)	*met(C)	*met()	*met(C|)	*met(C|)
!!primary-mensuration: met(C|)
!!!OMD: Agnus Dei I
!!section: Agnus Dei I
=1-	=1-	=1-	=1-	=1-	=1-
!	!	!LO:TX:Z=6:t=Tenor. De minimis non curat pretor [omit all notes smaller than a semibreve]	!	!	!
!	!	!LO:TX:Y=26:t=T by Malcort	!	!	!
!	!	!LO:N:vis=0	!	!	!
0r	0r	[y0E\	0r	0r	1e
.	.	.	.	.	2e/
.	.	.	.	.	[2e/
=2	=2	=2-	=2	=2	=2
0r	0r	0E\]yy	0r	1e	2e/]
.	.	.	.	.	4d/
.	.	.	.	.	4c/
.	.	.	.	2e\	1B
.	.	.	.	[2e\	.
=3	=3	=3	=3	=3	=3
0r	1E	0B	0r	2e\]	2r
.	.	.	.	4d\	2g/
.	.	.	.	4c\	.
.	2E\	.	.	2B\	2g/
.	[2E\	.	.	2E/	[2g/
=4	=4	=4-	=4	=4	=4
0r	2E\]	0B	0r	0G	2g/]
.	4D\	.	.	.	4f/
.	4C/	.	.	.	4e/
.	1BB	.	.	.	1d
=5	=5	=5	=5	=5	=5
0r	0r	0c	0r	1A	2r
.	.	.	.	.	2cc\
.	.	.	.	2r	2cc\
.	.	.	.	2c\	[2cc\
=6	=6	=6-	=6	=6	=6
0r	0r	0c	0r	2c\	2cc\]
.	.	.	.	1c	4b\
.	.	.	.	.	4a/
.	.	.	.	.	1g
.	.	.	.	4B\	.
.	.	.	.	4A/	.
=7	=7	=7	=7	=7	=7
0r	2r	0B	0r	1G	2r
.	2E\	.	.	.	2g/
.	2E\	.	.	1E	2g/
.	[2E\	.	.	.	[2g/
=8	=8	=8-	=8	=8	=8
0r	2E\]	0G	0r	1B	2g/]
.	4D\	.	.	.	4f/
.	4C/	.	.	.	4e/
.	1BB	.	.	2r	1d
.	.	.	.	2B\	.
=9	=9	=9	=9	=9	=9
0r	1r	0A	0r	1c	2r
.	.	.	.	.	2a/
.	2r	.	.	1A	2a/
.	2A\	.	.	.	[2a/
=10	=10	=10-	=10	=10	=10
0r	2A\	0A	0r	2r	2a/]
.	1A	.	.	2e\	4g/
.	.	.	.	.	4f/
.	.	.	.	2e\	1e
.	4G\	.	.	[2e\	.
.	4F\	.	.	.	.
=11	=11	=11	=11	=11	=11
0r	1E	0G	0r	2e\]	2r
.	.	.	.	4d\	2e/
.	.	.	.	4c\	.
.	2r	.	.	2B\	2e/
.	2G\	.	.	[2E/	[2e/
=12	=12	=12-	=12	=12	=12
0r	2G\	0E	0r	1E]	2e/]
.	1G	.	.	.	4d/
.	.	.	.	.	4c/
.	.	.	.	1G	1B
.	4F\	.	.	.	.
.	4E\	.	.	.	.
=13	=13	=13	=13	=13	=13
0r	[0D	0F	0r	0A	2r
.	.	.	.	.	2d/
.	.	.	.	.	2d/
.	.	.	.	.	[2d/
=14	=14	=14-	=14	=14	=14
0r	0D_	0F	0r	2r	2d/]
.	.	.	.	2d\	4c/
.	.	.	.	.	4B/
.	.	.	.	2d\	1A
.	.	.	.	[2d\	.
=15	=15	=15	=15	=15	=15
0r	0D]	0F	0r	2d\]	2r
.	.	.	.	4c\	2a/
.	.	.	.	4B\	.
.	.	.	.	1A	2a/
.	.	.	.	.	[2a/
=16	=16	=16-	=16	=16	=16
0r	0AA	[0E	0r	2r	2a/]
.	.	.	.	2c\	4g/
.	.	.	.	.	4f/
.	.	.	.	2c\	1e
.	.	.	.	[2c\	.
=17	=17	=17	=17	=17	=17
0r	[0E	0E]	0r	2c\]	2.g/
.	.	.	.	4B\	.
.	.	.	.	4A/	4a/
.	.	.	.	1G	4b\
.	.	.	.	.	4cc\
.	.	.	.	.	2b\
=18	=18	=18-	=18	=18	=18
0r	0E_	0r	0r	2r	4g/
.	.	.	.	.	4a/
.	.	.	.	2e\	4b\
.	.	.	.	.	4cc\
.	.	.	.	2e\	2b\
.	.	.	.	[2e\	[2cc\
=19	=19	=19	=19	=19	=19
0r	0E]	0e	0r	2e\]	2cc\]
.	.	.	.	4d\	4b\
.	.	.	.	4c\	4a/
.	.	.	.	1B	4g#i/
.	.	.	.	.	4a/
.	.	.	.	.	4b\
.	.	.	.	.	4g#i/
=20	=20	=20-	=20	=20	=20
0r	2.AA/	0c	0r	0A	1a
.	4GG/	.	.	.	.
.	4AA/	.	.	.	1e
.	4BB/	.	.	.	.
.	[2C/	.	.	.	.
=21	=21	=21	=21	=21	=21
0r	4C/]	0e	0r	[0E	2r
.	4BB/	.	.	.	.
.	4C/	.	.	.	2.g/
.	4D\	.	.	.	.
.	4E\	.	.	.	.
.	4D\	.	.	.	4f/
.	4E\	.	.	.	[2e/
.	4F\	.	.	.	.
=22	=22	=22-	=22	=22	=22
0r	2G\	0B	0r	0E]	2e/]
.	1A	.	.	.	4d/
.	.	.	.	.	4c/
.	.	.	.	.	1B
.	2G#i\	.	.	.	.
=23	=23	=23	=23	=23	=23
0r	2A\	0c	0r	0e	4A/
.	.	.	.	.	4G/
.	2.AA/	.	.	.	4A/
.	.	.	.	.	4B/
.	.	.	.	.	4c/
.	4GG/	.	.	.	4B/
.	4AA/	.	.	.	4c/
.	4BB/	.	.	.	4d/
=24	=24	=24-	=24	=24	=24
0r	4C/	0G	0r	1r	4e/
.	4BB/	.	.	.	4d/
.	4C/	.	.	.	4e/
.	4D\	.	.	.	4f/
.	4E\	.	.	2r	[1g
.	4D\	.	.	.	.
.	4E\	.	.	[2e\	.
.	4F\	.	.	.	.
=25	=25	=25	=25	=25	=25
0r	2G\	0B	0r	2e\]	2g/]
.	1A	.	.	4d\	4f/
.	.	.	.	4c\	4e/
.	.	.	.	1B	1d
.	2G#i\	.	.	.	.
=26	=26	=26-	=26	=26	=26
0r	0A	0e	0r	2.A/	2r
.	.	.	.	.	2.c/
.	.	.	.	4B\	.
.	.	.	.	4c\	.
.	.	.	.	4d\	4B/
.	.	.	.	2e\	4c/
.	.	.	.	.	4d/
=27	=27	=27	=27	=27	=27
0r	0r	0c	0r	2A/	4e/
.	.	.	.	.	4d/
.	.	.	.	1c	4e/
.	.	.	.	.	4f/
.	.	.	.	.	4g/
.	.	.	.	.	4f/
.	.	.	.	4B\	4g/
.	.	.	.	4A/	4a/
=28	=28	=28-	=28	=28	=28
0r	0r	0d	0r	2G/	2b\
.	.	.	.	2F/	1cc
.	.	.	.	1G	.
.	.	.	.	.	2b\
=29	=29	=29	=29	=29	=29
0r	0r	0c	0r	2r	1cc
.	.	.	.	2.A/	.
.	.	.	.	.	2r
.	.	.	.	4G/	.
.	.	.	.	4A/	[2c/
.	.	.	.	4B\	.
=30	=30	=30-	=30	=30	=30
0r	0r	0A	0r	2c\	4c/]
.	.	.	.	.	4B/
.	.	.	.	2A/	4c/
.	.	.	.	.	4d/
.	.	.	.	2.c\	4e/
.	.	.	.	.	4d/
.	.	.	.	.	4e/
.	.	.	.	4B\	4f/
=31	=31	=31	=31	=31	=31
0r	0r	0B	0r	0G	2.g/
.	.	.	.	.	4f/
.	.	.	.	.	1d
=32	=32	=32-	=32	=32	=32
0r	2r	0e	0r	1r	[0c
.	2.AA/	.	.	.	.
.	.	.	.	2r	.
.	4GG/	.	.	.	.
.	4AA/	.	.	[2A/	.
.	4BB/	.	.	.	.
=33	=33	=33	=33	=33	=33
0r	2C/	0e	0r	4A/]	0c]
.	.	.	.	4G/	.
.	2.AA/	.	.	4A/	.
.	.	.	.	4B\	.
.	.	.	.	2c\	.
.	4GG/	.	.	.	.
.	4AA/	.	.	[2A/	.
.	4BB/	.	.	.	.
=34	=34	=34-	=34	=34	=34
0r	2C/	0e	0r	4A/]	0r
.	.	.	.	4G/	.
.	2.AA/	.	.	4A/	.
.	.	.	.	4B\	.
.	.	.	.	4c\	.
.	4GG/	.	.	4B\	.
.	4AA/	.	.	4c\	.
.	4BB/	.	.	4d\	.
=35	=35	=35	=35	=35	=35
0r	4C/	0e	0r	4e\	0r
.	4BB/	.	.	4d\	.
.	4C/	.	.	4e\	.
.	4D\	.	.	4f\	.
.	4E\	.	.	[1g	.
.	4D\	.	.	.	.
.	4E\	.	.	.	.
.	4F\	.	.	.	.
=36	=36	=36-	=36	=36	=36
0r	2G\	0B	0r	2g\]	0r
.	1A	.	.	4f\	.
.	.	.	.	4e\	.
.	.	.	.	1d	.
.	2G#i\	.	.	.	.
=37	=37	=37	=37	=37	=37
0r	1A	0c	0r	1c	2.A/
.	.	.	.	.	4G/
.	1r	.	.	2r	4A/
.	.	.	.	.	4B/
.	.	.	.	[2A/	[2c/
=38	=38	=38-	=38	=38	=38
0r	0r	0c	0r	4A/]	4c/]
.	.	.	.	4G/	4B/
.	.	.	.	4A/	4c/
.	.	.	.	4B\	4d/
.	.	.	.	2.c\	4e/
.	.	.	.	.	4f/
.	.	.	.	.	[2g/
.	.	.	.	4B\	.
=39	=39	=39	=39	=39	=39
0r	0r	0B	0r	0G	2g/]
.	.	.	.	.	4f/
.	.	.	.	.	4e/
.	.	.	.	.	1d
=40	=40	=40-	=40	=40	=40
0r	2.AA/	0E	0r	2r	2.c/
.	.	.	.	1A	.
.	4GG/	.	.	.	4B/
.	4AA/	.	.	.	4c/
.	4BB/	.	.	.	4d/
.	[2C/	.	.	2G/	[2e/
=41	=41	=41	=41	=41	=41
0r	4C/]	0E	0r	1c	4e/]
.	4BB/	.	.	.	4d/
.	4C/	.	.	.	4e/
.	4D\	.	.	.	4f/
.	4E\	.	.	1B	2g/
.	4D\	.	.	.	.
.	4E\	.	.	.	[2e/
.	4F\	.	.	.	.
=42	=42	=42-	=42	=42	=42
0r	2G\	0E	0r	1e	2e/]
.	1A	.	.	.	4d/
.	.	.	.	.	4c/
.	.	.	.	2r	1B
.	2G#i\	.	.	2e\	.
=43	=43	=43	=43	=43	=43
0r	2A\	0F	0r	2c\	0A
.	2c\	.	.	2A/	.
.	2A\	.	.	2.c\	.
.	[2c\	.	.	.	.
.	.	.	.	4B\	.
=44	=44	=44-	=44	=44	=44
0r	2c\]	0E	0r	0G	2r
.	4B\	.	.	.	2g/
.	4A\	.	.	.	.
.	1B	.	.	.	2g/
.	.	.	.	.	2g/
=45	=45	=45	=45	=45	=45
0r	2r	0A	0r	0r	2a/
.	2A\	.	.	.	2e/
.	2F\	.	.	.	2.a/
.	[2A\	.	.	.	.
.	.	.	.	.	4g/
=46	=46	=46-	=46	=46	=46
0r	4A\]	0A	0r	0r	4f/
.	4G\	.	.	.	4e/
.	4F\	.	.	.	1e
.	4E\	.	.	.	.
.	1F	.	.	.	.
.	.	.	.	.	2d/
=47	=47	=47	=47	=47	=47
0r	0E	0B	0r	2r	2.e/
.	.	.	.	2g\	.
.	.	.	.	.	4d/
.	.	.	.	2g\	1B
.	.	.	.	2g\	.
=48	=48	=48-	=48	=48	=48
0r	2r	0c	0r	2a\	0A
.	2A\	.	.	2e\	.
.	2F\	.	.	2.a\	.
.	[2A\	.	.	.	.
.	.	.	.	4g\	.
=49	=49	=49	=49	=49	=49
0r	4A\]	0A	0r	4f\	0r
.	4G\	.	.	4e\	.
.	4F\	.	.	1e	.
.	4E\	.	.	.	.
.	1F	.	.	.	.
.	.	.	.	2d\	.
=50	=50	=50-	=50	=50	=50
0r	[0E	0G	0r	0e	2r
.	.	.	.	.	2e/
.	.	.	.	.	2c/
.	.	.	.	.	[2e/
=51	=51	=51	=51	=51	=51
0r	0E]	0G	0r	0r	2e/]
.	.	.	.	.	4d/
.	.	.	.	.	4c/
.	.	.	.	.	1B
=52	=52	=52-	=52	=52	=52
0r	0r	0A	0r	2r	1A
.	.	.	.	2e\	.
.	.	.	.	2c\	1r
.	.	.	.	[2e\	.
=53	=53	=53	=53	=53	=53
0r	0r	0G	0r	2e\]	0r
.	.	.	.	4d\	.
.	.	.	.	4c\	.
.	.	.	.	1B	.
=54	=54	=54-	=54	=54	=54
0r	2r	0c	0r	2A/	0r
.	2A\	.	.	2c\	.
.	2F\	.	.	2A/	.
.	[2A\	.	.	[2c\	.
=55	=55	=55	=55	=55	=55
0r	2A\]	0e	0r	2c\]	0r
.	4G\	.	.	4B\	.
.	4F\	.	.	4A/	.
.	1E	.	.	1G	.
=56	=56	=56-	=56	=56	=56
0r	0D	0f	0r	0d	2r
.	.	.	.	.	2a/
.	.	.	.	.	2f/
.	.	.	.	.	[2a/
=57	=57	=57	=57	=57	=57
0r	0AA	0c	0r	2r	2a/]
.	.	.	.	2e\	4g/
.	.	.	.	.	4f/
.	.	.	.	2c\	1e
.	.	.	.	[2e\	.
=58	=58	=58-	=58	=58	=58
0r	0E	0B	0r	2e\]	0r
.	.	.	.	4d\	.
.	.	.	.	4c\	.
.	.	.	.	1B	.
=59	=59	=59	=59	=59	=59
!	!	!LO:N:vis=0	!	!	!
0r	2r	[y0c	0r	0A	2r
.	2A\	.	.	.	2cc\
.	2F\	.	.	.	2a/
.	[2A\	.	.	.	[2cc\
=60	=60	=60-	=60	=60	=60
0r	2A\]	0c]yy	0r	0r	2cc\]
.	4G\	.	.	.	4b\
.	4F\	.	.	.	4a/
.	1E	.	.	.	1g
=61	=61	=61	=61	=61	=61
0r	2AA/	0r	0r	2r	0c
.	2A\	.	.	2c\	.
.	2F\	.	.	2A/	.
.	[2A\	.	.	[2c\	.
=62	=62	=62-	=62	=62	=62
0r	2A\]	0c	0r	2c\]	0r
.	4G\	.	.	4B\	.
.	4F\	.	.	4A/	.
.	1E	.	.	1G	.
=63	=63	=63	=63	=63	=63
0r	0D	0d	0r	1.A	2r
.	.	.	.	.	2a/
.	.	.	.	.	2f/
.	.	.	.	2B\	[2a/
=64	=64	=64-	=64	=64	=64
0r	0AA	0e	0r	0c	2a/]
.	.	.	.	.	4g/
.	.	.	.	.	4f/
.	.	.	.	.	2e/
.	.	.	.	.	2A/
=65	=65	=65	=65	=65	=65
0r	0D	0d	0r	0f	2r
.	.	.	.	.	2a/
.	.	.	.	.	2f/
.	.	.	.	.	[2a/
=66	=66	=66-	=66	=66	=66
0r	1.A	0c	0r	0e	2a/]
.	.	.	.	.	4g/
.	.	.	.	.	4f/
.	.	.	.	.	2e/
.	2A\	.	.	.	2cc\
=67	=67	=67	=67	=67	=67
0r	2A\	0c	0r	1.e	2a/
.	2A\	.	.	.	1cc
.	1A	.	.	.	.
.	.	.	.	2e\	4b\
.	.	.	.	.	4a/
=68	=68	=68-	=68	=68	=68
0r	1E	0r	0r	2e\	2g/
.	.	.	.	2e\	2e/
.	2r	.	.	2.c\	1e
.	[2A\	.	.	.	.
.	.	.	.	4A/	.
=69	=69	=69	=69	=69	=69
0r	2A\]	0c	0r	2A/	2r
.	2A\	.	.	2e\	2cc\
.	2A\	.	.	2f\	2a/
.	2A\	.	.	[2e\	[2cc\
=70	=70	=70-	=70	=70	=70
0r	1A	0e	0r	2e\]	2cc\]
.	.	.	.	2c\	4b\
.	.	.	.	.	4a/
.	1E	.	.	1B	1g
=71	=71	=71	=71	=71	=71
0r	2r	0c	0r	0A	1a
.	1A	.	.	.	.
.	.	.	.	.	1e
.	2A\	.	.	.	.
=72	=72	=72-	=72	=72	=72
0r	2A\	0F	0r	1.c	2r
.	2A\	.	.	.	1a
.	1A	.	.	.	.
.	.	.	.	2c\	2a/
=73	=73	=73	=73	=73	=73
0r	1AA	[0El	0r	2c\	1a
.	.	.	.	2c\	.
.	2r	.	.	1c	1g
.	[2C/	.	.	.	.
=74	=74	=74-	=74	=74	=74
0r	2C/]	0E_	0r	1G	2.g/
.	2C/	.	.	.	.
.	.	.	.	.	4f/
.	2C/	.	.	2r	4e/
.	.	.	.	.	4d/
.	2C/	.	.	[2G/	[2e/
=75	=75	=75	=75	=75	=75
0r	1C	0E_	0r	2G/]	2e/]
.	.	.	.	4F/	4d/
.	.	.	.	4E/	4c/
.	1GG	.	.	1G	1B
=76	=76	=76-	=76	=76	=76
0r	2r	0E_	0r	2C/	2.c/
.	1AA	.	.	1c	.
.	.	.	.	.	4d/
.	.	.	.	.	2e/
.	2AA/	.	.	2c\	[2A/
=77	=77	=77	=77	=77	=77
0r	2AA/	0E_	0r	2c\	4A/]
.	.	.	.	.	4B/
.	2AA/	.	.	2c\	4c/
.	.	.	.	.	4d/
.	1AA	.	.	1c	2e/
.	.	.	.	.	[2a/
=78	=78	=78-	=78	=78	=78
0r	[0EEl	0E_	0r	[0Bl	2a/]
.	.	.	.	.	4g/
.	.	.	.	.	4f/
.	.	.	.	.	1g
=79	=79	=79	=79	=79	=79
0r	0EE]	0E]	0r	0B]	0gl
*	*	*rscale:1	*	*	*
!!LO:LB:i:g=z
=80||	=80||	=80||	=80||	=80||	=80||
*>B	*>B	*>B	*>B	*>B	*>B
*clefF4	*clefF4	*clefGv2	*clefGv2	*clefGv2	*clefG2
*k[]	*k[]	*k[]	*k[]	*k[]	*k[]
*M2/1	*M2/1	*M2/1	*M2/1	*M2/1	*M2/1
*met(C|)	*met(C|)	*met(C|)	*met(C|)	*met(C|)	*met(C|)
!!!OMD: Agnus Dei II
!!section: Agnus Dei II
!	!	!LO:TX:Z=6:t=Canon at the upper second	!	!	!
!	!	!	!	!	!LO:TX:Z=8:t=S and T by Malcort
0r	0r	1D	0r	1r	0r
.	.	1G	.	1E	.
=81	=81	=81	=81	=81	=81
0r	0r	2F/	0r	1A	0r
.	.	2D/	.	.	.
.	.	1E	.	2G/	.
.	.	.	.	2E/	.
=82	=82	=82	=82	=82	=82
0r	0r	1D	0r	1F	0r
.	.	1G	.	1E	.
=83	=83	=83	=83	=83	=83
0r	0r	1F	0r	1A	0r
.	.	1E	.	1G	.
=84	=84	=84	=84	=84	=84
0r	0r	2r	0r	1F	0r
.	.	2D/	.	.	.
.	.	2E/	.	2r	.
.	.	2G/	.	2E/	.
=85	=85	=85	=85	=85	=85
0r	0r	2.F/	0r	2F/	0r
.	.	.	.	2A/	.
.	.	4E/	.	.	.
.	.	2C/	.	2.G/	.
.	.	2G/	.	.	.
.	.	.	.	4F/	.
=86	=86	=86	=86	=86	=86
0r	0r	2F/	0r	2D/	0r
.	.	2D/	.	2A/	.
.	.	1E	.	2G/	.
.	.	.	.	2E/	.
=87	=87	=87	=87	=87	=87
0r	0r	2D/	0r	1F	0r
.	.	2A/	.	.	.
.	.	2B\	.	2E/	.
.	.	2d\	.	2B\	.
=88	=88	=88	=88	=88	=88
0r	0r	2.c\	0r	2c\	0r
.	.	.	.	2e\	.
.	.	4B\	.	.	.
.	.	2G/	.	2.d\	.
.	.	2d\	.	.	.
.	.	.	.	4c\	.
=89	=89	=89	=89	=89	=89
0r	0r	2c\	0r	2A/	0r
.	.	2A/	.	2e\	.
.	.	1B	.	2d\	.
.	.	.	.	2B\	.
=90	=90	=90	=90	=90	=90
0r	0r	1A	0r	1c	0r
.	.	2r	.	1B	.
.	.	2G/	.	.	.
=91	=91	=91	=91	=91	=91
0r	0r	2A/	0r	2r	0r
.	.	2F/	.	2A/	.
.	.	2G/	.	2B\	.
.	.	2E/	.	2G/	.
=92	=92	=92	=92	=92	=92
0r	0r	2F/	0r	2A/	0r
.	.	2D/	.	2F/	.
.	.	2E/	.	2G/	.
.	.	2C/	.	2E/	.
=93	=93	=93	=93	=93	=93
0r	0r	2D/	0r	2F/	0r
.	.	2F/	.	2D/	.
.	.	1E	.	2E/	.
.	.	.	.	2G/	.
=94	=94	=94	=94	=94	=94
0r	0r	1D	0r	1F	0r
.	.	2r	.	1E	.
.	.	2C/	.	.	.
=95	=95	=95	=95	=95	=95
0r	0r	1F	0r	2r	0r
.	.	.	.	2D/	.
.	.	1E	.	1G	.
=96	=96	=96	=96	=96	=96
0r	0r	2r	0r	1F	0r
.	.	2D/	.	.	.
.	.	1G	.	2r	.
.	.	.	.	2E/	.
=97	=97	=97	=97	=97	=97
0r	0r	1F	0r	1A	0r
.	.	2r	.	1G	.
.	.	2E/	.	.	.
=98	=98	=98	=98	=98	=98
0r	0r	1A	0r	2r	0r
.	.	.	.	2F/	.
.	.	1G	.	1B-	.
=99	=99	=99	=99	=99	=99
0r	0r	2r	0r	1A	0r
.	.	2F/	.	.	.
.	.	1B-i	.	2r	.
.	.	.	.	2G/	.
=100	=100	=100	=100	=100	=100
0r	0r	1A	0r	1c	0r
.	.	2r	.	1B	.
.	.	2G/	.	.	.
=101	=101	=101	=101	=101	=101
0r	0r	1c	0r	2r	0r
.	.	.	.	2A/	.
.	.	1B	.	1d	.
=102	=102	=102	=102	=102	=102
0r	0r	2r	0r	1c	0r
.	.	2A/	.	.	.
.	.	1d	.	2r	.
.	.	.	.	2B\	.
=103	=103	=103	=103	=103	=103
0r	0r	2c\	0r	1e	0r
.	.	2A/	.	.	.
.	.	2B\	.	2d\	.
.	.	2G/	.	2B\	.
=104	=104	=104	=104	=104	=104
0r	0r	2A/	0r	2c\	0r
.	.	2F/	.	2A/	.
.	.	2G/	.	2B\	.
.	.	2E/	.	2G/	.
=105	=105	=105	=105	=105	=105
0r	0r	2D/	0r	2A/	0r
.	.	2d\	.	2F/	.
.	.	2e\	.	2E/	.
.	.	2c\	.	2e\	.
=106	=106	=106	=106	=106	=106
0r	0r	2d\	0r	2f\	0r
.	.	2B\	.	2d\	.
.	.	2c\	.	2e\	.
.	.	2A/	.	2c\	.
=107	=107	=107	=107	=107	=107
0r	0r	1G	0r	2d\	0r
.	.	.	.	2B\	.
.	.	2r	.	1A	.
.	.	2c\	.	.	.
=108	=108	=108	=108	=108	=108
0r	0r	2d\	0r	2r	0r
.	.	2B\	.	2d\	.
.	.	2c\	.	2e\	.
.	.	2A/	.	2c\	.
=109	=109	=109	=109	=109	=109
0r	0r	2B\	0r	2d\	0r
.	.	2G/	.	2B\	.
.	.	1A	.	2c\	.
.	.	.	.	2A/	.
=110	=110	=110	=110	=110	=110
0r	0r	2r	0r	1B	0r
.	.	2G/	.	.	.
.	.	2A/	.	2r	.
.	.	2F/	.	2A/	.
=111	=111	=111	=111	=111	=111
0r	0r	1G	0r	2B\	0r
.	.	.	.	2G/	.
.	.	2r	.	1A	.
.	.	2F/	.	.	.
=112	=112	=112	=112	=112	=112
0r	0r	2G/	0r	2r	0r
.	.	2E/	.	2G/	.
.	.	1F	.	2A/	.
.	.	.	.	2F/	.
=113	=113	=113	=113	=113	=113
0r	0r	2r	0r	1G	0r
.	.	2E/	.	.	.
.	.	2F/	.	2r	.
.	.	2D/	.	2F/	.
=114	=114	=114	=114	=114	=114
0r	0r	1E	0r	2G/	0r
.	.	.	.	2E/	.
*	*	*M2/1	*	*	*
*	*	*met(3/2)	*	*	*
.	.	3.D/	.	1F	.
.	.	6E/	.	.	.
.	.	3F/	.	.	.
=115	=115	=115	=115	=115	=115
*M3/1	*M3/1	*M3/1	*M3/1	*M3/1	*M3/1
*met()	*met()	*met()	*met()	*met(3/2)	*met()
!!primary-mensuration: met(3/2)
0.r	0.r	2.G/	0.r	2.E/	0.r
.	.	4A/	.	4F/	.
.	.	2B\	.	2G/	.
.	.	1c	.	2.A/	.
.	.	.	.	4B\	.
.	.	2A/	.	2c\	.
=116	=116	=116	=116	=116	=116
0.r	0.r	2B\	0.r	1d	0.r
.	.	1G	.	.	.
.	.	.	.	2B\	.
.	.	1C	.	2c\	.
.	.	.	.	1A	.
.	.	[2D/	.	.	.
=117	=117	=117	=117	=117	=117
0.r	0.r	4D/]	0.r	1D	0.r
.	.	4E/	.	.	.
.	.	2F/	.	.	.
.	.	2G/	.	2.E/	.
.	.	1E	.	.	.
.	.	.	.	4F/	.
.	.	.	.	2G/	.
.	.	[2F/	.	2A/	.
=118	=118	=118	=118	=118	=118
0.r	0.r	4F/]	0.r	1F	0.r
.	.	4G/	.	.	.
.	.	2A/	.	.	.
.	.	2B\	.	2.G/	.
.	.	1G	.	.	.
.	.	.	.	4A/	.
.	.	.	.	2B\	.
.	.	[2A/	.	2c\	.
=119	=119	=119	=119	=119	=119
0.r	0.r	4A/]	0.r	1A	0.r
.	.	4B\	.	.	.
.	.	2c\	.	.	.
.	.	2d\	.	2.B\	.
.	.	1B	.	.	.
.	.	.	.	4c\	.
.	.	.	.	2d\	.
.	.	[2c\	.	2e\	.
=120	=120	=120	=120	=120	=120
0.r	0.r	4c\]	0.r	1c	0.r
.	.	4A/	.	.	.
.	.	2A/	.	.	.
.	.	2B\	.	2.d\	.
.	.	1G	.	.	.
.	.	.	.	4B\	.
.	.	.	.	2B\	.
.	.	[2A/	.	2c\	.
=121	=121	=121	=121	=121	=121
0.r	0.r	4A/]	0.r	1A	0.r
.	.	4F/	.	.	.
.	.	2F/	.	.	.
.	.	2G/	.	2.B\	.
.	.	1E	.	.	.
.	.	.	.	4G/	.
.	.	.	.	2G/	.
.	.	[2F/	.	2A/	.
=122	=122	=122	=122	=122	=122
0.r	0.r	4F/]	0.r	1F	0.r
.	.	4D/	.	.	.
.	.	2D/	.	.	.
.	.	2E/	.	2.G/	.
.	.	2C/	.	.	.
.	.	.	.	4E/	.
.	.	2G/	.	2E/	.
.	.	[2A/	.	2F/	.
=123	=123	=123	=123	=123	=123
0.r	0.r	4A/]	0.r	2D/	0.r
.	.	4B\	.	.	.
.	.	2c\	.	2A/	.
.	.	2d\	.	2.B\	.
.	.	1B	.	.	.
.	.	.	.	4c\	.
.	.	.	.	2d\	.
.	.	2G/	.	2e\	.
=124	=124	=124	=124	=124	=124
0.r	0.r	2A/	0.r	1c	0.r
.	.	2.c\	.	.	.
.	.	.	.	2A/	.
.	.	4B\	.	.	.
.	.	2.G/	.	2B\	.
.	.	.	.	2.d\	.
.	.	4F/	.	.	.
.	.	[2D/	.	.	.
.	.	.	.	4c\	.
=125	=125	=125	=125	=125	=125
0.r	0.r	2D/]	0.r	2.A/	0.r
.	.	2A/	.	.	.
.	.	.	.	4G/	.
.	.	2c\	.	1E	.
.	.	2B\	.	.	.
.	.	2.d\	.	2B\	.
.	.	.	.	2d\	.
.	.	4c\	.	.	.
=126	=126	=126	=126	=126	=126
0.r	0.r	1A	0.r	2c\	0.r
.	.	.	.	2.e\	.
.	.	2G/	.	.	.
.	.	.	.	4d\	.
.	.	2d\	.	1B	.
.	.	2D/	.	.	.
.	.	2F/	.	2A/	.
=127	=127	=127	=127	=127	=127
0.r	0.r	2E/	0.r	2e\	0.r
.	.	2.G/	.	2E/	.
.	.	.	.	2G/	.
.	.	4F/	.	.	.
.	.	1D	.	2F/	.
.	.	.	.	2.A/	.
.	.	2A/	.	.	.
.	.	.	.	4G/	.
=128	=128	=128	=128	=128	=128
0.r	0.r	2c\	0.r	1E	0.r
.	.	2B\	.	.	.
.	.	2.d\	.	2B\	.
.	.	.	.	2d\	.
.	.	4c\	.	.	.
.	.	1A	.	2c\	.
.	.	.	.	[2e\	.
=129	=129	=129	=129	=129	=129
0.r	0.r	2G/	0.r	4e\]	0.r
.	.	.	.	4d\	.
.	.	1d	.	1B	.
.	.	2c\	.	2A/	.
.	.	2A/	.	1e	.
.	.	2c\	.	.	.
=130	=130	=130	=130	=130	=130
0.r	0.r	2B\	0.r	2d\	0.r
.	.	2G/	.	2B\	.
.	.	2B\	.	2d\	.
!	!	!	!	!LO:N:vis=2	!
.	.	1.Al	.	1.cl	.
!!LO:LB:i:g=z
=131||	=131||	=131||	=131||	=131||	=131||
*>C	*>C	*>C	*>C	*>C	*>C
*clefF4	*clefF4	*clefGv2	*clefGv2	*clefGv2	*clefG2
*k[]	*k[]	*k[]	*k[]	*k[]	*k[]
*	*	*rscale:1/2	*	*	*rscale:1/2
*M2/1	*M2/1	*M2/0	*M2/1	*M2/1	*M2/0
*met(C|)	*met(C|)	*met(C)	*met(C|)	*met(C|)	*met(C)
!!primary-mensuration: met(C|)
!!!OMD: Agnus Dei III
!!section: Agnus Dei III
!LO:TX:Z=6:t=[Canon at the unison]	!	!	!	!LO:TX:Z=6:t=[Canon at the unison]	!
!	!	!LO:N:vis=0	!	!	!
!	!	!	!	!	!LO:N:vis=0
1E	2r	[y0E	0r	0r	0r
.	1E	.	.	.	.
2G\	.	.	.	.	.
2E\	2G\	.	.	.	.
=132	=132	=132-	=132	=132	=132-
2.G\	2E\	0E]yy	0r	0r	0ryy
.	2.G\	.	.	.	.
4A\	.	.	.	.	.
2B\	.	.	.	.	.
.	4A\	.	.	.	.
2E\	2B\	.	.	.	.
=133	=133	=133	=133	=133	=133
!	!	!	!	!	!LO:N:vis=0
0r	2E\	0B	2r	2E/	0r
.	2r	.	2E/	2G/	.
.	1r	.	2G/	2E/	.
.	.	.	2E/	[2G/	.
=134	=134	=134-	=134	=134	=134-
0r	0r	0B	2.G/	4G/]	0ryy
.	.	.	.	4A/	.
.	.	.	.	2B\	.
.	.	.	4A/	.	.
.	.	.	2B\	1E	.
.	.	.	[2E/	.	.
=135	=135	=135	=135	=135	=135
!	!	!	!	!	!LO:N:vis=0
4AA/	2r	0c	2E/]	0r	[y0e
4BB/	.	.	.	.	.
4C/	4AA/	.	2r	.	.
4D\	4BB/	.	.	.	.
2E\	4C/	.	1r	.	.
.	4D\	.	.	.	.
[2AA/	2E\	.	.	.	.
=136	=136	=136-	=136	=136	=136-
4AA/]	2.AA/	0c	0r	0r	0e]yy
4BB/	.	.	.	.	.
4C/	.	.	.	.	.
4D\	4BB/	.	.	.	.
1E	4C/	.	.	.	.
.	4D\	.	.	.	.
.	[2E\	.	.	.	.
=137	=137	=137	=137	=137	=137
0r	2E\]	0B	2r	2.G/	0b
.	2r	.	2.G/	.	.
.	.	.	.	4A/	.
.	1r	.	.	2B\	.
.	.	.	4A/	.	.
.	.	.	2B\	[2E/	.
=138	=138	=138-	=138	=138	=138-
0r	0r	0G	2.E/	4E/]	0b
.	.	.	.	4F/	.
.	.	.	.	2G/	.
.	.	.	4F/	.	.
.	.	.	2G/	2E/	.
.	.	.	2E/	2e\	.
=139	=139	=139	=139	=139	=139
2.AA/	2r	0A	2e\	2.c\	0cc
.	2.AA/	.	2.c\	.	.
4BB/	.	.	.	4d\	.
2C/	.	.	.	1e	.
.	4BB/	.	4d\	.	.
[2AA/	2C/	.	[2e\	.	.
=140	=140	=140-	=140	=140	=140-
4AA/]	2.AA/	0A	2e\]	2r	0cc
4GG/	.	.	.	.	.
4AA/	.	.	2r	2.e\	.
4BB/	4GG/	.	.	.	.
4C/	4AA/	.	2.e\	.	.
4D\	4BB/	.	.	4e\	.
[2E\	4C/	.	.	2e\	.
.	4D\	.	4e\	.	.
=141	=141	=141	=141	=141	=141
4E\]	2.E\	0G	2e\	1E	0b
4F\	.	.	.	.	.
2G\	.	.	1E	.	.
.	4F\	.	.	.	.
4E\	2G\	.	.	1e	.
4F\	.	.	.	.	.
2G\	4E\	.	[2e\	.	.
.	4F\	.	.	.	.
=142	=142	=142-	=142	=142	=142-
1C	2G\	0E	2e\]	2e\	0g
.	1C	.	2e\	2.e\	.
1r	.	.	2.e\	.	.
.	.	.	.	4d\	.
.	2r	.	.	4c\	.
.	.	.	4d\	4B\	.
=143	=143	=143	=143	=143	=143
0r	0r	0F	4c\	2.A/	0a
.	.	.	4B\	.	.
.	.	.	2.A/	.	.
.	.	.	.	4B\	.
.	.	.	.	2c\	.
.	.	.	4B\	.	.
.	.	.	2c\	2A/	.
=144	=144	=144-	=144	=144	=144-
0r	0r	0F	2A/	2c\	0a
.	.	.	2c\	2A/	.
.	.	.	2A/	2.c\	.
.	.	.	[2c\	.	.
.	.	.	.	4d\	.
=145	=145	=145	=145	=145	=145
*	*	*M2/1	*	*	*M2/1
*	*	*met(C|)	*	*	*met(C|)
*	*	*rscale:1	*	*	*rscale:1
0r	0r	2.E/	4c\]	1e	2.g/
.	.	.	4d\	.	.
.	.	.	1e	.	.
.	.	4F/	.	.	4a/
.	.	2G/	.	1r	2b\
.	.	[2A/	2r	.	[2e/
=146	=146	=146	=146	=146	=146
0r	0r	4A/]	0r	0r	4e/]
.	.	4G/	.	.	4f/
.	.	2E/	.	.	2g/
.	.	2F/	.	.	2a/
.	.	2G/	.	.	2e/
=147	=147	=147	=147	=147	=147
0r	0r	2A/	1r	1r	2f/
.	.	2E/	.	.	1e
.	.	1F	2r	2.A/	.
.	.	.	[2A/	.	2d/
.	.	.	.	4B\	.
=148	=148	=148	=148	=148	=148
*	*	*M2/1	*	*	*M2/1
*	*	*met(C)	*	*	*met(C)
*	*	*rscale:1/2	*	*	*rscale:1/2
!	!	!LO:N:vis=0	!	!	!
2.AA/	2r	[y0E	4A/]	4c\	0e
.	.	.	4B\	4d\	.
.	2.AA/	.	4c\	1e	.
4BB/	.	.	4d\	.	.
4C/	.	.	1e	.	.
4D\	4BB/	.	.	.	.
[2E\	4C/	.	.	[2C/	.
.	4D\	.	.	.	.
=149	=149	=149-	=149	=149	=149-
2E\]	1E	0E]yy	2.C/	4C/]	0r
.	.	.	.	4D/	.
2.C/	.	.	.	4E/	.
.	.	.	4D/	4F/	.
.	2.C/	.	4E/	1G	.
4D\	.	.	4F/	.	.
4E\	.	.	[2G/	.	.
4F\	4D\	.	.	.	.
=150	=150	=150	=150	=150	=150
1G	4E\	0r	2G/]	2.E/	0b
.	4F\	.	.	.	.
.	1G	.	2.E/	.	.
.	.	.	.	4F/	.
2.E\	.	.	.	4G/	.
.	.	.	4F/	4A/	.
.	[2E\	.	4G/	2B\	.
4F\	.	.	4A/	.	.
=151	=151	=151-	=151	=151	=151-
4G\	4E\]	0e	2B\	1E	0g
4A\	4F\	.	.	.	.
2B\	4G\	.	1E	.	.
.	4A\	.	.	.	.
2E\	2B\	.	.	1r	.
2r	2E\	.	2r	.	.
=152	=152	=152	=152	=152	=152
*	*	*M2/1	*	*	*M2/1
*	*	*met(C|)	*	*	*met(C|)
*	*	*rscale:1	*	*	*rscale:1
0r	0r	1c	0r	0r	1a
.	.	2d\	.	.	1b
.	.	[2e\	.	.	.
=153	=153	=153	=153	=153	=153
0r	0r	2e\]	0r	0r	1cc
.	.	2A/	.	.	.
.	.	1B	.	.	2b\
.	.	.	.	.	[2g/
=154	=154	=154	=154	=154	=154
0r	0r	1c	0r	0r	2g/]
.	.	.	.	.	2a/
.	.	2B\	.	.	1b
.	.	[2G/	.	.	.
=155	=155	=155	=155	=155	=155
0r	0r	2G/]	0r	0r	1e
.	.	2A/	.	.	.
.	.	1B	.	.	2r
.	.	.	.	.	[2b\
=156	=156	=156	=156	=156	=156
0r	0r	2E/	0r	0r	2b\]
.	.	1e	.	.	2cc\
.	.	.	.	.	2b\
.	.	4d\	.	.	[2ee\
.	.	4c\	.	.	.
=157	=157	=157	=157	=157	=157
0r	0r	4d\	0r	0r	2ee\]
.	.	4c\	.	.	.
.	.	4B\	.	.	4dd\
.	.	4A/	.	.	4cc\
.	.	2.G/	.	.	4dd\
.	.	.	.	.	4cc\
.	.	.	.	.	4b\
.	.	4A/	.	.	4a/
=158	=158	=158	=158	=158	=158
0r	0r	2B\	2r	2.E/	2.g/
.	.	2c\	2.E/	.	.
.	.	.	.	4F/	4a/
.	.	2B\	.	2G/	2b\
.	.	.	4F/	.	.
.	.	[2e\	2G/	2C/	[2cc\
=159	=159	=159	=159	=159	=159
0r	0r	4e\]	2C/	2G/	4cc\]
.	.	4d\	.	.	4b\
.	.	2B\	2G/	2r	1b
.	.	1c	1r	1r	.
.	.	.	.	.	2a/
=160	=160	=160	=160	=160	=160
*	*	*M2/1	*	*	*M2/1
*	*	*met(C)	*	*	*met(C)
*	*	*rscale:1/2	*	*	*rscale:1/2
2.E\	2r	1B	0r	0r	1b
.	2.E\	.	.	.	.
4F\	.	.	.	.	.
!	!	!LO:N:vis=2.	!	!	!
!	!	!	!	!	!LO:N:vis=2.
2G\	.	[1e	.	.	[1cc
.	4F\	.	.	.	.
2C/	2G\	.	.	.	.
=161	=161	=161-	=161	=161	=161-
2G\	2C/	2e\]	0r	0r	2cc\]
2r	2G\	2d\	.	.	2b\
4F\	2r	1f	.	.	[1dd
4G\	.	.	.	.	.
4A\	4F\	.	.	.	.
4B\	4G\	.	.	.	.
=162	=162	=162	=162	=162	=162
2.c\	4A\	1e	2r	4c\	2dd\]
.	4B\	.	.	4d\	.
.	2.c\	.	4c\	4e\	2cc\
4C/	.	.	4d\	4f\	.
!	!	!	!	!	!LO:N:vis=1
2C/	.	1c	4e\	2.g\	[1cc
.	4C/	.	4f\	.	.
2r	2C/	.	[2g\	.	.
.	.	.	.	4G/	.
=163	=163	=163-	=163	=163	=163-
0r	0r	0d	4g\]	2G/	1cc]
.	.	.	4G/	.	.
.	.	.	2G/	2g\	.
.	.	.	2g\	2G/	1b
.	.	.	2G/	2g\	.
=164	=164	=164	=164	=164	=164
*	*	*M2/1	*	*	*M2/1
*	*	*met(C|)	*	*	*met(C|)
*	*	*rscale:1	*	*	*rscale:1
0r	0r	2c\	2g\	2e\	2cc\
.	.	1c	2e\	2r	1a
.	.	.	1r	1r	.
.	.	2B\	.	.	4g/
.	.	.	.	.	4f/
=165	=165	=165	=165	=165	=165
0r	0r	2c\	0r	0r	1e
.	.	1A	.	.	.
.	.	.	.	.	2f/
.	.	2G/	.	.	[2e/
=166	=166	=166	=166	=166	=166
0r	0r	2A/	0r	0r	2e/]
.	.	2c\	.	.	1a
.	.	1B	.	.	.
.	.	.	.	.	2g/
=167	=167	=167	=167	=167	=167
0r	0r	2A/	0r	0r	2a/
.	.	1e	.	.	2cc\
.	.	.	.	.	1b
.	.	2d\	.	.	.
=168	=168	=168	=168	=168	=168
0r	0r	2c\	0r	0r	2a/
.	.	1e	.	.	1cc
.	.	2d\	.	.	4b\
.	.	.	.	.	4a/
=169	=169	=169	=169	=169	=169
2.C/	2r	1.e	0r	0r	0g
.	2.C/	.	.	.	.
4D\	.	.	.	.	.
4E\	.	.	.	.	.
4F\	4D\	.	.	.	.
2G\	4E\	4d\	.	.	.
.	4F\	4c\	.	.	.
=170	=170	=170	=170	=170	=170
0r	2G\	2B\	2r	2.E/	1r
.	2r	2c\	2.E/	.	.
.	.	.	.	4F/	.
.	1r	2B\	.	4G/	1g
.	.	.	4F/	4A/	.
.	.	[2G/	4G/	2B\	.
.	.	.	4A/	.	.
=171	=171	=171	=171	=171	=171
4E\	2r	4G/]	2B\	1r	1g
4F\	.	4A/	.	.	.
4G\	4E\	2B\	1r	.	.
4A\	4F\	.	.	.	.
2B\	4G\	2E/	.	2.E/	1g
.	4A\	.	.	.	.
2E\	2B\	[2e\	[2E/	.	.
.	.	.	.	4F/	.
=172	=172	=172	=172	=172	=172
2r	2E\	2e\]	4E/]	4G/	0g
.	.	.	4F/	4A/	.
2E\	2r	4d\	4G/	2B\	.
.	.	4c\	4A/	.	.
2E\	2E\	1B	2B\	2E/	.
2E\	2E\	.	2E/	2e\	.
=173	=173	=173	=173	=173	=173
1AA	2E\	2A/	2e\	2c\	0a
.	1AA	1c	2c\	2r	.
1r	.	.	1r	1r	.
.	2r	2d\	.	.	.
=174	=174	=174	=174	=174	=174
2.E\	2r	2.e\	0r	0r	1g
.	2.E\	.	.	.	.
4F\	.	4d\	.	.	.
2G\	.	2B\	.	.	1g
.	4F\	.	.	.	.
4C/	2G\	[2c\	.	.	.
4D\	.	.	.	.	.
=175	=175	=175	=175	=175	=175
4E\	4C/	2c\]	1r	1r	1e
4F\	4D\	.	.	.	.
2G\	4E\	4B\	.	.	.
.	4F\	4A/	.	.	.
1r	2G\	1B	2r	2.G/	2d/
.	2r	.	[2G/	.	[2g/
.	.	.	.	4A/	.
=176	=176	=176	=176	=176	=176
0r	0r	1E	4G/]	2B\	4g/]
.	.	.	4A/	.	4f/
.	.	.	2B\	4E/	1e
.	.	.	.	4F/	.
.	.	1E	4E/	4G/	.
.	.	.	4F/	4A/	.
.	.	.	4G/	2B\	4d/
.	.	.	4A/	.	4c/
=177	=177	=177	=177	=177	=177
0r	0r	1E	2B\	1r	2B/
.	.	.	1r	.	1e
.	.	1F	.	2.A/	.
.	.	.	[2A/	.	2d/
.	.	.	.	4B\	.
=178	=178	=178	=178	=178	=178
*	*	*M2/1	*	*	*M2/1
*	*	*met(C)	*	*	*met(C)
*	*	*rscale:1/2	*	*	*rscale:1/2
2.AA/	2r	0E	4A/]	4c\	0e
.	.	.	4B\	4d\	.
.	2.AA/	.	4c\	2e\	.
4AA/	.	.	4d\	.	.
2AA/	.	.	2e\	2.c\	.
.	4AA/	.	.	.	.
2A\	2AA/	.	[2c\	.	.
.	.	.	.	4A/	.
=179	=179	=179-	=179	=179	=179-
2F\	2A\	1r	4c\]	2.A/	0f
.	.	.	4A/	.	.
4D\	2F\	.	2.A/	.	.
4E\	.	.	.	4F/	.
4F\	4D\	[1A	.	2F/	.
4G\	4E\	.	4F/	.	.
2A\	4F\	.	2F/	2r	.
.	4G\	.	.	.	.
=180	=180	=180	=180	=180	=180
4AA/	2A\	1A]	0r	0r	0e
4BB/	.	.	.	.	.
4C/	4AA/	.	.	.	.
4D\	4BB/	.	.	.	.
1E	4C/	1G	.	.	.
.	4D\	.	.	.	.
.	[2E\	.	.	.	.
=181	=181	=181-	=181	=181	=181-
1AA	2E\]	0A	2r	2c\	1r
.	1AA	.	2c\	4A/	.
.	.	.	.	4B\	.
1r	.	.	4A/	4c\	[1a
.	.	.	4B\	4d\	.
.	2r	.	4c\	2e\	.
.	.	.	4d\	.	.
=182	=182	=182	=182	=182	=182
2.E\	2r	0B	2e\	2E/	1a]
.	2.E\	.	2E/	2G/	.
4E\	.	.	.	.	.
2E\	.	.	2G/	2E/	1g
.	4E\	.	.	.	.
2E\	2E\	.	2E/	2e\	.
=183	=183	=183-	=183	=183	=183-
2.C/	2E\	0c	2e\	2r	0a
.	2.C/	.	2r	2.e\	.
4AA/	.	.	.	.	.
2AA/	.	.	2.e\	.	.
.	4AA/	.	.	4e\	.
2r	2AA/	.	.	2e\	.
.	.	.	4e\	.	.
=184	=184	=184	=184	=184	=184
2.E\	2r	1B	2e\	2E/	0b
.	2.E\	.	2E/	2G/	.
4E\	.	.	.	.	.
2E\	.	1G	2G/	2E/	.
.	4E\	.	.	.	.
2E\	2E\	.	2E/	[2e\	.
=185	=185	=185-	=185	=185	=185-
2.C/	2E\	0A	2.e\	4e\]	0cc
.	.	.	.	4e\	.
.	2.C/	.	.	2e\	.
4AA/	.	.	4e\	.	.
2AA/	.	.	2e\	2c\	.
.	4AA/	.	.	.	.
2r	2AA/	.	2c\	2r	.
=186	=186	=186	=186	=186	=186
*	*	*M2/1	*	*	*M2/1
*	*	*met(C|)	*	*	*met(C|)
*	*	*rscale:1	*	*	*rscale:1
0r	0r	2G/	0r	0r	2b\
.	.	1G	.	.	2g/
.	.	.	.	.	1a
.	.	2F/	.	.	.
=187	=187	=187	=187	=187	=187
1r	1r	1G	0r	0r	2g/
.	.	.	.	.	1g
1D	2r	1A	.	.	.
.	[2D\	.	.	.	2f#i/
=188	=188	=188	=188	=188	=188
2GG/	2D\]	1G	0r	0r	0g
2G\	2GG/	.	.	.	.
2E\	2G\	2r	.	.	.
2C/	2E\	[2c\	.	.	.
=189	=189	=189	=189	=189	=189
1G	2C/	2c\]	1r	1r	1r
.	1G	2d\	.	.	.
1C	.	1e	2r	2.c\	1g
.	[2C/	.	[2c\	.	.
.	.	.	.	4c\	.
=190	=190	=190	=190	=190	=190
0r	2C/]	2e\	4c\]	2c\	2g/
.	.	.	4c\	.	.
.	2r	1f	2c\	4F/	1a
.	.	.	.	4G/	.
.	1r	.	4F/	4A/	.
.	.	.	4G/	4B\	.
.	.	4e\	4A/	2c\	4g/
.	.	4d\	4B\	.	4f/
=191	=191	=191	=191	=191	=191
0r	0r	1.c	2c\	0r	1.e
.	.	.	2r	.	.
.	.	.	1r	.	.
.	.	[2d\	.	.	[2f/
=192	=192	=192	=192	=192	=192
0r	0r	4d\]	0r	0r	4f/]
.	.	4c\	.	.	4e/
.	.	2A/	.	.	2c/
.	.	1B	.	.	1d
=193	=193	=193	=193	=193	=193
2.C/	2r	0c	1r	1r	2.e/
.	2.C/	.	.	.	.
4C/	.	.	.	.	4f/
2C/	.	.	2r	2.c\	2g/
.	4C/	.	.	.	.
2C/	2C/	.	[2c\	.	2a/
.	.	.	.	4c\	.
=194	=194	=194	=194	=194	=194
0r	2C/	1r	4c\]	2c\	2g/
.	.	.	4c\	.	.
.	2r	.	2c\	4c\	1cc
.	.	.	.	4d\	.
.	1r	1c	4c\	4e\	.
.	.	.	4d\	4f\	.
.	.	.	4e\	2g\	4b\
.	.	.	4f\	.	4a/
=195	=195	=195	=195	=195	=195
1r	1r	1d	2g\	2G/	2b\
.	.	.	2G/	2.g\	2dd\
2.C/	2r	1e	2.g\	.	2cc\
.	.	.	.	4g\	.
.	[2C/	.	.	2g\	[2ee\
4C/	.	.	4g\	.	.
=196	=196	=196	=196	=196	=196
2C/	4C/]	2.c\	2g\	2g\	4ee\]
.	4C/	.	.	.	4dd\
2C/	2C/	.	2g\	2r	2.cc\
.	.	4d\	.	.	.
1r	2C/	2e\	1r	1r	.
.	.	.	.	.	4b\
.	2r	[2f\	.	.	[2dd\
=197	=197	=197	=197	=197	=197
1r	1r	4f\]	0r	0r	4dd\]
.	.	4e\	.	.	4cc\
.	.	4d\	.	.	4b\
.	.	4c\	.	.	4a/
2GG/	2r	1d	.	.	1b
2G\	2GG/	.	.	.	.
=198	=198	=198	=198	=198	=198
4C/	2G\	2c\	2r	2.g\	1cc
4D\	.	.	.	.	.
4E\	4C/	1c	2.g\	.	.
4F\	4D\	.	.	4g\	.
1G	4E\	.	.	2g\	1r
.	4F\	.	4g\	.	.
.	[2G\	2B\	2g\	2g\	.
=199	=199	=199	=199	=199	=199
2C/	2G\]	1c	2g\	0r	1cc
1G	2C/	.	2r	.	.
.	1G	1r	1r	.	2dd\
[2C/	.	.	.	.	[2ee\
=200	=200	=200	=200	=200	=200
2C/]	1C	1c	2r	2.g\	2ee\]
1G	.	.	2.g\	.	4dd\
.	.	.	.	4g\	4cc\
.	1G	2d\	.	2g\	2b\
.	.	.	4g\	.	.
2C/	.	[2e\	2g\	2g\	[2cc\
=201	=201	=201	=201	=201	=201
2.E\	2C/	2e\]	2g\	2.e\	2cc\]
.	2.E\	4d\	2.e\	.	4b\
4E\	.	4c\	.	4e\	4a/
2E\	.	2B\	.	2e\	2g/
.	4E\	.	4e\	.	.
2AA/	2E\	[2c\	2e\	2e\	[2a/
=202	=202	=202	=202	=202	=202
2.C/	2AA/	2c\]	2e\	1c	2a/]
.	2.C/	4B\	1c	.	4g/
4C/	.	4A/	.	.	4f/
2C/	.	2G/	.	1c	2e/
.	4C/	.	.	.	.
2FF/	2C/	[2A/	[2c\	.	[2f/
=203	=203	=203	=203	=203	=203
2C/	2FF/	4A/]	2c\]	1r	4f/]
.	.	4G/	.	.	4e/
2r	2C/	2E/	1r	.	1e
1r	1r	1F	.	2.A/	.
.	.	.	[2A/	.	2d/
.	.	.	.	4B\	.
=204	=204	=204	=204	=204	=204
2.AA/	2r	[0El	4A/]	2c\	[0el
.	.	.	4B\	.	.
.	2.AA/	.	2c\	2A/	.
4BB/	.	.	.	.	.
2C/	.	.	2A/	2e\	.
.	4BB/	.	.	.	.
2AA/	2C/	.	2e\	2r	.
=205	=205	=205	=205	=205	=205
1E	2AA/	0E_	2r	2.E/	0e_
.	1E	.	2.E/	.	.
.	.	.	.	4F/	.
1r	.	.	.	2G/	.
.	.	.	4F/	.	.
.	2r	.	2G/	2C/	.
=206	=206	=206	=206	=206	=206
2.E\	2r	0E_	2C/	1G	0e_
.	2.E\	.	1G	.	.
4F\	.	.	.	.	.
2G\	.	.	.	1r	.
.	4F\	.	.	.	.
2C/	2G\	.	2r	.	.
=207	=207	=207	=207	=207	=207
[0Gl	2C/	0E_	2r	2.G/	0e_
.	[1.Gl	.	2.G/	.	.
.	.	.	.	4A/	.
.	.	.	.	2B\	.
.	.	.	4A/	.	.
.	.	.	2B\	2E/	.
=208	=208	=208	=208	=208	=208
0G]	0G]	0E]	2E/	0Bl	0e]
.	.	.	1.Bl	.	.
==	==	==	==	==	==
*-	*-	*-	*-	*-	*-
!!!RDF**kern: l=long note in original notation
!!!RDF**kern: i=editorial accidental
!!!ENC:	Jesse Rodin; Victoria Chang 2011/05/09
!!!END:	2011/05/08/
!!!EED:	Jesse Rodin
!!!EEV: 2013/10/25/
!!attribution-level@Jos: 1 (secure)
!!!ONB:	Translated from MusicXML and edited on 2011/09/20/ by Craig Sapp
!!muse2ps: T^@{OPR}^u^@{ONM}{. }@{OTL}^C^@{COM}\n@{SCT}^i2I100v95,95,95,95,95,150c110Q16
